!!!!SEGMENT: pl-cz--ii-87--003-008_grim-jozef--msza-druga-agnus.krn
!!!cenid: 18xx:1187
!!!COM: Grim, Józef
!!!COM-rismID: pe30003883
!!!CDT: ~1800-~1899
!!!CNT:
!!!OPR: Msza druga
!!!OTL: Agnus
!!!OMV: 008
!!!PDT: 1888
!!!AGN: Sacred; Mass
!!!SMS-siglum: PL-CZ
!!!SMS-shelfmark: II-87
!!!SMS-shelfwork: 003-008 M
!!!SMS-variant:
!!!SMS-altvar:
!!!NIFC-rismSourceID: 300033226
!!!NIFC-islandoraID: pl-cz:33881
!!!URL-pdf-islandora: https://repozytorium.nifc.pl/islandora/object/pl-cz%3A33881/datastream/PDF/view
!!!URL-scan:
!!!ONB-nifc: UWAGA: części Mszy: Kirie, Gloria, Graduale, Credo, Offertorium, Sanctus, Po podniesieniu, Agnus
!!!OMD: Andante
!!!AIN: 1 organ 1 vox
!!!key: g
**kern	**kern	**dynam	**kern	**text	**dynam
*part2	*part2	*part2	*part1	*part1	*part1
*staff3	*staff2	*	*staff1	*staff1	*
*I"[Organo]	*	*	*I"[Voice]	*	*
*Iorgan	*	*	*Ivox	*	*
*ICklav	*	*	*ICvox	*	*
*IGacmp	*	*	*IGsolo	*	*
*clefF4	*clefG2	*	*clefG2	*	*
*k[b-e-]	*k[b-e-]	*	*k[b-e-]	*	*
*g:	*g:	*	*g:	*	*
*M3/4	*M3/4	*	*M3/4	*	*
=1	=1	=1	=1	=1	=1
2.r	8r	.	2.r	.	.
.	8dd\L	.	.	.	.
.	8cc\	.	.	.	.
.	8b-\	.	.	.	.
.	8a\	.	.	.	.
.	8g\J	.	.	.	.
=2	=2	=2	=2	=2	=2
*	*^	*	*	*	*
!	!LO:N:vis=2	!	!	!	!	!
4r	[>2.d/	4r	.	2.r	.	.
4F#X\	.	4A\	.	.	.	.
4A\	.	4c\	.	.	.	.
=3	=3	=3	=3	=3	=3	=3
4G\	4d/]	4B-\	.	2.r	.	.
4Fn\	2g/	4Bn\	.	.	.	.
8En\L	.	8c\L	.	.	.	.
8E-X\J	.	8c#X\J	.	.	.	.
=4	=4	=4	=4	=4	=4	=4
2.D\	2b- 2g/	4d\	.	2.r	.	.
.	.	4c#X\	.	.	.	.
!	!	!LO:SIC:v:n=1:s=4f#	!	!	!	!
.	4a/	4f 4cn\	.	.	.	.
=5	=5	=5	=5	=5	=5	=5
4G\	4g 4d/	4B-\	.	2.r	.	.
4GG/	8r	2ryy	.	.	.	.
.	8d/L	.	.	.	.	.
4r	8g/	.	.	.	.	.
.	8b-/J	.	.	.	.	.
*	*v	*v	*	*	*	*
=6||	=6||	=6||	=6||	=6||	=6||
*^	*	*	*^	*	*
!LO:N:vis=2	!	!	!	!	!	!	!
2.G 2.GG\	(>4G/	4dd 4b-/	.	4dd/	4b-\	Dzie-	.
.	4A/	4cc 4a/	.	4cc/	4a\	-ci	.
.	4B-/)	4b- 4g/	.	4b-/	4g\	nie-	.
*v	*v	*	*	*	*	*	*
=7	=7	=7	=7	=7	=7	=7
*	*^	*	*	*	*	*
2.G 2.GG\	2.a/	2.g 2.e- 2.c<\	.	2a/	2g\	-go-	.
.	.	.	.	8a/	8g\	-dne	.
.	.	.	.	8a/	8g\	tak	.
!!LO:LB:g=original
=8	=8	=8	=8	=8	=8	=8	=8
*^	*	*	*	*	*	*	*
4A/	2.G 2.GG\	4cc 4f#X/	4e-\	.	4cc/	4f#X\	wiel-	.
4d/	.	4b-/	4g\	.	4b-/	4g\	-kiej	.
4ryy	.	4a/	4f# 4c\	.	4a/	4f#\	o-	.
*v	*v	*	*	*	*	*	*	*
=9	=9	=9	=9	=9	=9	=9	=9
4GG/	2g/	2B-\	.	4g/	4g\	-fia-	.
8G\L	.	.	.	4g/	4g\	-ry	.
8E-\	.	.	.	.	.	.	.
8D\	4r	4ryy	.	4r	4ryy	.	.
8C\J	.	.	.	.	.	.	.
=10	=10	=10	=10	=10	=10	=10	=10
2BB-/	2g/	2d\	.	2g/	2d\	z_Twe-	.
4D\	4a 4f#X/	4ryy	.	4a/	4f#X\	-go	.
=11	=11	=11	=11	=11	=11	=11	=11
2G\	2b- 2g/	2d\	.	2b-/	2g\	sto-	.
4GG/	4dd 4b-/	4ryy	.	4dd/	4b-\	-łu	.
=12	=12	=12	=12	=12	=12	=12	=12
2C/	2cc 2a/	2ryy	.	2cc/	2a\	da-	.
4C#X/	4b- 4g/	4en\	.	4b-/	4g\	-ry	.
=13	=13	=13	=13	=13	=13	=13	=13
2D\	4b- 4g/	2.d\	.	4b-/	4g\	bio-	.
.	4a 4f#X/	.	.	4a/	4f#X\	-rą,	.
4r	4d/	.	.	4r	4ryy	.	.
*	*v	*v	*	*	*	*	*
=14	=14	=14	=14	=14	=14	=14
*^	*	*	*	*	*	*
!	!	!	!	!	!	!	!LO:DY:b:rj
4GG/	[<(>4G/	4dd 4bn/	.	4dd/	4bn\	rę-	f
2G\]	4A/	4cc 4a/	.	4cc/	4a\	-ce	.
.	4Bn/)	4bn 4g/	.	4bn/	4g\	do	.
=15	=15	=15	=15	=15	=15	=15	=15
*	*	*^	*	*	*	*	*
2.G\	2.c/	2.a/	2.g 2.e-\	.	2a/	2en\	oj-	.
.	.	.	.	.	8a/	8e\	-ca	.
.	.	.	.	.	8a/	8e\	u-	.
!!LO:LB:g=original
=16	=16	=16	=16	=16	=16	=16	=16	=16
2G\	4A/	4cc/	4en\	.	4cc/	4en\	-no-	.
.	2ryy	4bn/	4g\	.	4bn/	4g\	-szą	.
8D\L	.	4a/	4f#X 4c\	.	4a/	4f#X\	po-	.
8D#X\J	.	.	.	.	.	.	.	.
*v	*v	*	*	*	*	*	*	*
*	*v	*v	*	*	*	*	*
=17	=17	=17	=17	=17	=17	=17
2.En\	2.g 2.en 2.B-\	.	2g/	2en\	-da-	.
.	.	.	4g/	4e\	-ry-	.
=18	=18	=18	=18	=18	=18	=18
*^	*^	*	*	*	*	*
!	!LO:N:vis=2	!	!	!	!	!	!	!
4c/	2.C\	2g/	2en\	.	2g/	2en\	-i	.
2G/	.	.	.	.	.	.	.	.
!	!	!	!	!	!LO:TX:a:t=a	!	!	!
.	.	4a/	4g 4e-X\	.	4a/	4e-X\	z_uf-	.
=19	=19	=19	=19	=19	=19	=19	=19	=19
!	!	!LO:N:vis=2	!LO:N:vis=2	!	!	!	!	!
2G/	2GG\	2.bn/	2.g 2.d\	.	4bn/	4d\	-nos-	.
.	.	.	.	.	4b/	4d\	-ćią	.
4G\	4ryy	.	.	.	4r	4ryy	.	.
=20	=20	=20	=20	=20	=20	=20	=20	=20
!	!LO:N:vis=2	!	!	!	!	!	!	!
4G/	2.En\	2bn/	4en\	.	2bn/	2g\	i	.
4Bn/	.	.	2g\	.	.	.	.	.
4A/	.	4cc#X/	.	.	4cc#X/	4g\	z_po-	.
=21	=21	=21	=21	=21	=21	=21	=21	=21
2.A/	2.D;\	2dd/	4g\	.	4dd/	4g\	-ko-	.
.	.	.	2f#X\	.	4dd/	4f#X\	-rą	.
*	*	*Xtuplet	*	*	*	*	*	*
*	*	*rscale:2	*	*	*	*	*	*
!	!	!	!	!LO:DY:rj	!	!	!	!
.	.	24en/LL	.	p	4r	4ryy	.	.
.	.	24f#X/	.	.	.	.	.	.
.	.	24g/	.	.	.	.	.	.
.	.	24a/	.	.	.	.	.	.
.	.	24b-X/	.	.	.	.	.	.
.	.	24cc/JJ	.	.	.	.	.	.
*v	*v	*	*	*	*	*	*	*
=22	=22	=22	=22	=22	=22	=22	=22
*	*rscale:1	*	*	*	*	*	*
!	!	!	!LO:DY:rj	!	!	!	!LO:DY:b:rj
4GG/	4dd 4b-/	2.d\	p	(4dd/	(4b-\	i	p
4AA/	4cc 4a/	.	.	4cc/)	4a\)	.	.
4BB-X/	4b- 4g/	.	.	4b-X/	4g\	z_uf-	.
*	*v	*v	*	*	*	*	*
!!LO:LB:g=original
=23	=23	=23	=23	=23	=23	=23
2.C/	2.a/	.	2a/	2e-X\	-nos-	.
.	.	.	4a/	4e-\	-cią	.
=24	=24	=24	=24	=24	=24	=24
*	*^	*	*	*	*	*
*	*	*^	*	*	*	*	*
4AA/	4cc/	2g/	4e-\	.	(4cc/	(>4e-\	i	.
2D\	4b-/	.	4d\	.	4b-X/)	4d\)	.	.
.	4a/	4f#X 4c\	4ryy	.	4a/	4c\	spo-	.
*	*v	*v	*v	*	*	*	*	*
=25	=25	=25	=25	=25	=25	=25
4E-\	2.g 2.d 2.B-/	.	2g/	2B-\	-ko-	.
4D\	.	.	.	.	.	.
!	!LO:TX:b:t=Finis	!	!	!	!	!
4GG/	.	.	4g/	4B-\	-rą.	.
*	*	*	*v	*v	*	*
==	==	==	==	==	==
*-	*-	*-	*-	*-	*-
!!!system-decoration: (<s1>s2,s3)
!!!RDF**kern: > = above
!!!RDF**kern: < = below
!!!ENC: Berenika Jozajtis
!!!END: 2020-11-07
!!!ENC: Andrzej Kubiczek
!!!END: 2021-11-15
